X: 1
T: the Wind that Shakes the Piggery
C: Lindsay Ross (?-1980)
B: The Dance Music of Lindsay Ross
R: jig
N: Ian Stirlin's 1/4 million-pound piggery near Arbroath blew down in the gales of 1975.
Z: 2012 John Chambers <jc:trillian.mit.edu>
M: 6/8
L: 1/8
K: F
c3 |\
"F"Acf a3- | a2e gfd |c2f "Gm"G3- | G2A BGF |\
"C7"EGB e3- | edc BAG | "F"FAG FGF | "C7"E2c BAG |
"F"Acf a3- | a2e gfd |c2f "Gm"G3- | G2A BGF |\
"C7"EGB e3- | edc BAG | "F"FAG FAc | "F"f3- fGF ||
"C7"EGc e3- | eGA BAG | "F"FAc f3- | fAB cBA |\
"G7"G=Bd g3- | gfe dc=B | "C"c=Bc "G7"e2d | "C7"c2B A2G |
(4FAcf a3- | a2e gfd | c2f "Gm"G3- | G2A BGF |\
"C7"EGB e3- | edc BAG | "F"FAG FAc | f3 z2 |]
